src/dsmComponents/Icons/download-20px.svg

<?xml version="1.0" encoding="UTF-8"?>
<svg width="20px" height="18px" viewBox="0 0 20 18" version="1.1" xmlns="http://www.w3.org/2000/svg" xmlns:xlink="http://www.w3.org/1999/xlink">
    <!-- Generator: Sketch 59.1 (86144) - https://sketch.com -->
    <title>download-20px</title>
    <desc>Created with Sketch.</desc>
    <defs>
        <path d="M6.25,0 L6.25,2.57142857 L2.5,2.57142857 L2.5,15.4285714 L17.5,15.4285714 L17.5,2.57142857 L13.75,2.57142857 L13.75,0 L18.75,0 C19.44,0 20,0.576 20,1.28571429 L20,16.7142857 C20,17.424 19.44,18 18.75,18 L1.25,18 C0.56,18 0,17.424 0,16.7142857 L0,1.28571429 C0,0.576 0.56,0 1.25,0 L6.25,0 Z M11.25,0 L11.25,7.71428571 L15,7.71428571 L10,12.8571429 L5,7.71428571 L8.75,7.71428571 L8.75,0 L11.25,0 Z" id="path-1"></path>
    </defs>
    <g id="Final" stroke="none" stroke-width="1" fill="none" fill-rule="evenodd">
        <g id="All-Nucleo-Icons" transform="translate(-463.000000, -2712.000000)">
            <g id="Solo/Nucleo/20px/download" transform="translate(461.000000, 2709.000000)">
                <g transform="translate(2.000000, 3.000000)" id="version-update">
                    <g>
                        <g id="Colour/Default-Colour">
                            <mask id="mask-2" fill="white">
                                <use xlink:href="#path-1"></use>
                            </mask>
                            <g id="Mask" fill-rule="nonzero"></g>
                            <g id="colour/neutral/chia" mask="url(#mask-2)" fill="#737373">
                                <g transform="translate(-22.000000, -23.000000)" id="Colour">
                                    <rect x="0" y="0" width="64" height="64"></rect>
                                </g>
                            </g>
                        </g>
                    </g>
                </g>
            </g>
        </g>
    </g>
</svg>

<svg width="20" height="18" xmlns="http://www.w3.org/2000/svg" xmlns:xlink="http://www.w3.org/1999/xlink"><defs><path d="M6.25 0v2.571H2.5V15.43h15V2.57h-3.75V0h5C19.44 0 20 .576 20 1.286v15.428c0 .71-.56 1.286-1.25 1.286H1.25C.56 18 0 17.424 0 16.714V1.286C0 .576.56 0 1.25 0h5zm5 0v7.714H15l-5 5.143-5-5.143h3.75V0h2.5z" id="download-20px_svg__a"/></defs><use fill="#737373" xlink:href="#download-20px_svg__a" fill-rule="evenodd"/></svg>
